Papirus/64x64/apps/rider.svg

<svg xmlns="http://www.w3.org/2000/svg" width="64" height="64" version="1">
 <rect style="opacity:0.2" width="56" height="56" x="4" y="5" rx="2.6" ry="2.6"/>
 <path style="fill:#c72566" d="M 32,4 H 6.8 C 5.2488,4 4,5.2488 4,6.8 V 32 H 32 Z"/>
 <path style="fill:#6655e4" d="M 32,4 H 57.2 C 58.751,4 60,5.2488 60,6.8 V 32 H 32 Z"/>
 <path style="fill:#ff8c2a" d="M 32,60 H 6.8 C 5.2488,60 4,58.751 4,57.2 V 32 H 32 Z"/>
 <path style="fill:#c72566" d="M 32,60 H 57.2 C 58.751,60 60,58.751 60,57.2 V 32 H 32 Z"/>
 <rect style="fill:#3f3f3f" width="40" height="40" x="12" y="12"/>
 <path style="opacity:0.2;fill:none;stroke:#000000;stroke-width:4;stroke-linecap:round" d="M 18,47 H 34"/>
 <path style="fill:none;stroke:#ffffff;stroke-width:4;stroke-linecap:round" d="M 18,46 H 34"/>
 <path style="fill:none;stroke:#000000;stroke-width:4;stroke-linecap:round;stroke-linejoin:bevel;opacity:0.2" d="M 34,35 C 34,35 42.088,35.7 42,27 41.913,18.299 34,19 34,19 M 34,35 V 19"/>
 <path style="fill:none;stroke:#ffffff;stroke-width:4;stroke-linecap:round;stroke-linejoin:bevel" d="M 34,34 C 34,34 42.088,34.7 42,26 41.913,17.299 34,18 34,18 M 34,34 V 18"/>
 <path style="opacity:0.2;fill:none;stroke:#000000;stroke-width:4;stroke-linecap:round" d="M 26,35 22,29 M 18,27 C 18,27 26,27.929 26,23 26,18.071 18,19 18,19 M 18,35 V 19"/>
 <path style="fill:none;stroke:#ffffff;stroke-width:4;stroke-linecap:round" d="M 26,34 22,28 M 18,26 C 18,26 26,26.929 26,22 26,17.071 18,18 18,18 M 18,34 V 18"/>
 <path style="opacity:0.2;paint-order:markers stroke fill;fill:#ffffff" d="M 6.5996 4 C 5.1592 4 4 5.1592 4 6.5996 L 4 7.5996 C 4 6.1592 5.1592 5 6.5996 5 L 57.4 5 C 58.841 5 60 6.1592 60 7.5996 L 60 6.5996 C 60 5.1592 58.841 4 57.4 4 L 6.5996 4 z"/>
</svg>

<svg xmlns="http://www.w3.org/2000/svg" height="64" width="64" version="1"><path d="M6.8 61C5.25 61 4 59.75 4 58.2v-2C4 57.75 5.25 59 6.8 59h50.4c1.55 0 2.8-1.25 2.8-2.8v2c0 1.55-1.25 2.8-2.8 2.8H32z" opacity=".2" fill="#0e0e0e"/><path d="M32 4H6.8A2.794 2.794 0 0 0 4 6.8V32h28z" fill="#d70055"/><path d="M32 4h25.2C58.751 4 60 5.249 60 6.8V32H32z" fill="#245aff"/><path d="M32 60H6.8A2.794 2.794 0 0 1 4 57.2V32h28z" fill="#ffac00"/><path d="M32 60h25.2c1.551 0 2.8-1.249 2.8-2.8V32H32z" fill="#d70055"/><path d="M6.8 4C5.25 4 4 5.25 4 6.8v1C4 6.25 5.25 5 6.8 5h50.4C58.75 5 60 6.25 60 7.8v-1C60 5.25 58.75 4 57.2 4H6.8z" opacity=".2" fill="#fff"/><path fill="#3f3f3f" d="M12 12h40v40H12z"/><path d="M18 47h16" opacity=".2" fill="none" stroke="#000" stroke-width="4" stroke-linecap="round"/><path d="M18 46h16" fill="none" stroke="#fff" stroke-width="4" stroke-linecap="round"/><path d="M26 35l-4-6m-4-2s8 .928 8-4c0-4.93-8-4-8-4m0 16V19" opacity=".2" fill="none" stroke="#000" stroke-width="4" stroke-linecap="round"/><path d="M26 34l-4-6m-4-2s8 .929 8-4c0-4.93-8-4-8-4m0 16V18" fill="none" stroke="#fff" stroke-width="4" stroke-linecap="round"/><path d="M33.864 35s4.25-.116 6.954-1.517c2.703-1.401 3.86-4.088 3.827-6.25-.032-2.11-1.188-4.915-3.875-6.446C38.083 19.257 33.864 19 33.864 19m0 0v16" opacity=".2" fill="none" stroke="#000" stroke-width="4" stroke-linecap="round"/><path d="M33.864 34s4.25-.116 6.954-1.517c2.703-1.401 3.86-4.088 3.827-6.25-.032-2.11-1.188-4.915-3.875-6.446C38.083 18.257 33.864 18 33.864 18m0 0v16" fill="none" stroke="#fff" stroke-width="4" stroke-linecap="round"/></svg>
